X: 1410
T: Mâtemzedeyim
C: Tanburî Cemil Bey
O: Turkey
F: http://compmusic.upf.edu/node/140
N: hicaz--sarki--aksak--matemzedeyim--tanburi_cemil_bey
N: makam= hicaz
N: form= sarki
N: usul= aksak = 9/8
M: 9/8
L: 1/16
K: C _7/8B ^f ^c 
Q: 1/4=132
%%MIDI tuningsystem comma53
z4 d3e e4 e=fed ^3/4cB | A4ed ^3/4cde3/2g/ =fee6  | \
w:  Mâ *  tem  |  *  ze *  de *  yim   | 
d3e =fefe edd^3/4c d6 | 
w:  kül *  be  *  i  *  ah  | 
d2 a2g2 {a}gg^3/4fe d2ef g2fe  | ^3/4f3e e=c'=ba aggf efg2 fe | 
w:  zâ  |  *  *  nı *  mı  *  gel   | 
e4e=f eded ^3/4cde3dg^3/4f  | e4 d3e ^3/4fgfe f4 a2 | 
w:  gör   SAZ  |  *  Ey  *  çeşm_  | 
ag g^3/4fe2 g2=f2 e2f2 g2a2  | g2=fe edd^3/4c d3c d4 z2 | 
w:  *  *  *  *  i  se mâ  |  vî  *  *  dîl_ *  i  *  gir  | 
^3/4c2 d4 dcd4=f4ed  | ^3/4c4 d2e=f edde dcB/A/e dc | 
w:  yâ  |  *  nı mı  *  gel   | 
^3/4c6 cdcB A_3/4Bc4cB  | ^3/4c4 dc_3/4Bc BA/^G/A2 A6 | \
w:  gör   SAZ  |  *  Ey  *  *  *  çeşm_  | 
AG =F2G2 A2_3/4B2 ^3/4c2ed cBA2  | 
w:  *  *  *  i  se mâ  | 
e2d^3/4c cBBA A4 e6 | de =fef2 ed^3/4cd ede4dc  | 
w:  vî  *  *  dîl_ *  i  *  gir  |  yâ  | 
BAG2 g=fed d^3/4ccB A_3/4Bc2 _7/8BA | \
w:  *  *  *  nı *  mı  *  gel   | 
A6 g=bag fga4g_3/4b  | 
w:  gör   SAZ  | 
a4 g3a =b3a =c'4 c'b | =b2 a2a2 b2a2 g2^3/4f2 e2b2  | \
w:  *  Yâ *  dın  |  *  *  la  do lan   | 
a3g ^3/4f2fe edd^3/4c d6 | 
w:  dî *  de  i  *  hic  | 
d2 a2g2 {a}gg^3/4fe d2ef g2fe  | ^3/4f3e e=c'=ba aggf efg2 fe | 
w:  râ  |  *  *  nı *  mı  *  gel   | 
e4e=f eded ^3/4cde3dg^3/4f  | e4 d3e ^3/4fgfe f4 a2 | 
w:  gör   SAZ  |  *  Ey  *  çeşm_  | 
ag g^3/4fe2 g2=f2 e2f2 g2a2  | g2=fe edd^3/4c d3c d4 z2 | 
w:  *  *  *  *  i  se mâ  |  vî  *  *  dîl_ *  i  *  gir  | 
^3/4c2 d4 dcd4=f4ed  | ^3/4c4 d2e=f edde dcB/A/e dc | 
w:  yâ  |  *  nı mı  *  gel   | 
^3/4c6 cdcB A_3/4Bc4cB  | ^3/4c4 dc_3/4Bc BA/^G/A2 A6 | \
w:  gör   SAZ  |  *  Ey  *  *  *  çeşm_  | 
AG =F2G2 A2_3/4B2 ^3/4c2ed cBA2  | 
w:  *  *  *  i  se mâ  | 
e2d^3/4c cBBA A4 e6 | de =fef2 ed^3/4cd ede4dc  | 
w:  vî  *  *  dîl_ *  i  *  gir  |  yâ  | 
BAG2 g=fed d^3/4ccB A_3/4Bc2 _7/8BA | \
w:  *  *  *  nı *  mı  *  gel   | 
A6 e=fed ^3/4cBA6  | 
w:  gör   KARAR SAZ  | 
|


